X:1
T:Title
%%score { ( 1 3 ) | ( 2 4 ) }
L:1/8
M:9/8
K:Db
V:1 treble nm="Grand Piano"
V:3 treble 
V:2 bass 
V:4 bass 
V:1
 z3 z3[Q:1/4=108] A2 F | .[Fd]3 [FA]-[DFA-][DFA] [A,DF]2 [DFA] | [DFd]6 z3 | %3
 d2- [Fd] d2- [Fd] cdB | [A,CA]6 z3 | d2- [Fd] A2- [FA] F2 A | B6 B2 B | %7
 e2- [=Ge] d2- [B,Gd] [DEB]2 [Ec] |[M:3/4] [EA]6 |[M:3/8] A2 A |[M:9/8] B3 B3 z3 | %11
 [DFA]3 [DF]3 z3 | d3 d3 z3 | e6 f2 e | d3 A3 z3 |[M:21/16] [GB]3 d3/2- d3 dc/-c/B | %16
[M:9/8] A3 d3 z3[K:bass] |[M:3/4] [F,D]6 |] %18
V:2
 z9 | [D,A,]3 z3 z3 | D,6[K:treble] F2 A | z3 z3 .A,3 | A,,6[K:treble] F2 A | %5
 [D,A,]2 [D,A,] [D,D]2 [D,D] [F,A,D]2 [F,D] | [G,DG]6 z3 | [E,D]2 [E,D] [E,B,]2 E, E,2 E, | %8
[M:3/4] A,,6 |[M:3/8] z3 |[M:9/8] [G,DG]2 [G,D] [G,DG]2 [G,D] [G,B,D]2 [G,CG] | %11
 z3 A,3[K:treble] F2 A | [D,A,]2 [D,A,] [D,A,]2 [D,A,] [E,A,]2 [D,D] | [A,CA]6 z3 | %14
 [D,A,]2 D, D,2 D, F,2 F, |[M:21/16][K:treble] z3 B3/2- B3 z3 | %16
[M:9/8] [A,DF]2 [A,D] [A,F]2[K:bass] A, A,,2 A,, |[M:3/4] D,6 |] %18
V:3
 x9 | z3 .A,3 z3 | x9 | .F3 .F3 z3 | x9 | .F3 .F3 z3 | x9 | .=G3 .G3 z3 |[M:3/4] x6 |[M:3/8] x3 | %10
[M:9/8] z2 G z2 G G2 B | x9 | F2 F F2 F [Gc]2 [Fd] | x9 | F2 [A,F] [DF]2 [DF] [DAd]2 [DAc] | %15
[M:21/16] x21/2 |[M:9/8] z2 F z2 F [A,DF]2[K:bass] [G,CE] |[M:3/4] x6 |] %18
V:4
 x9 | z2 F D,D,D, D,2 D, | x6[K:treble] x3 | [D,A,]2 [D,A,] [D,A,]2 [D,A,] [E,E]-[E,B,E][E,=G,D] | %4
 x6[K:treble] x3 | x9 | x9 | x9 |[M:3/4] x6 |[M:3/8] x3 |[M:9/8] x9 | D,6[K:treble] z3 | x9 | x9 | %14
 x9 |[M:21/16][K:treble] [G,D]3/2-[G,D]3/2-[G,D]3/2- [G,D]3 z3 |[M:9/8] x5[K:bass] x4 | %17
[M:3/4] x6 |] %18

